X: 182
T: No_90_They_Are_Making_Me_Old.krn
N: Derived from No_90_They_Are_Making_Me_Old.krn
%%abc-version 2.0
%%abcx-abcm2ps-target-version 5.9.1 (29 Sep 2008)
%%abc-creator hum2abc beta
%%abcx-conversion-date 2019/03/15 08:29:13
%%humdrum-veritas 4128825091
%%humdrum-veritas-data 1714026731
%%linebreak <none>
%%barnumbers 0
L: 1/8
M: 3/4
%%staves {1 2}
V: 1 clef=bass
V: 2 clef=bass
K: F
[V:1] DD D3/F/ [I:setbarnb 1]| 
[V:2] G,,G,, G,,G,, | 
[V:1] F3FF2 | 
[V:2] G,,G,, G,,G,, G,,G,, | 
[V:1] D3DD2 | 
[V:2] z6 | 
[V:1] C2A,2A,C | 
[V:2] z6 | 
[V:1] C3CC2 | 
[V:2] z6 | 
[V:1] A,3A,A,2 ||  
[V:2] z6 ||  
[V:1] [M:4/4]A,2G,2F,2G,F, ||  
[V:2] [M:4/4]z8 ||  
[V:1] [M:3/4]D,3D, D,D, | 
[V:2] [M:3/4]z6 | 
[V:1] D,3G,G,2 | 
[V:2] z6 | 
[V:1] G,3G,G,2 | 
[V:2] z6 | 
[V:1] G,G, F,3/F,/F,2 | 
[V:2] z6 | 
[V:1] D,3D, D,D, | 
[V:2] z6 | 
[V:1] D,3D,D,2 | 
[V:2] z6 | 
[V:1] D,D,D,3/D,/D,2D,2 |]  
[V:2] z8 |]  



